X: 10866
T: Drive Hawkie Through The Water
R: reel
M: 4/4
K: Cmajor
|:G2GB A2AB|G2GB AFDF|G2GB ABGA|1 Beeg edBA:|2 Beed e3||
|:g|edBA GABe|dBBA GEE2|edBG ABGA|1 Beed e2e:|2 Beeg edBA||

